X:280
T:Paddy Kelly's
Z: id:dc-reel-260
M:C
L:1/8
K:G Mixolydian
DE|G2dG BGdG|G2dG G^FDE|F2cF AFcF|F2cF FED^F|!
G2dG BGdG|G2dG G^FDE|FGAe fefd|cA^FA G2:|!
Bd|g2dg g^fdf|g2a^f gfde|f2cf Afcf|fga^f gfdf|!
g2a^f gfdf|g2a^f gfde|f2a^f gfdc|BGA^F G2:|!
DE|GA_B2 cA=BG|G2Bd gdBG|F2cF AFcF|F2cF FED^F|!
GA_B2 cA=BG|G2^FD GABc|dgg2 ^fdcA|BGA^F G2:|!
Bc|dgg2 agg^f|dgg^f dcBc|defg ag^fd|gbag ^fdcA|!
dgg2 agg^f|dgg^f dcBc|defa g^fdc|BGA^F G2:|!

